packages/katcn/src/icons/svg/puzzle.svg

<svg xmlns="http://www.w3.org/2000/svg" fill="none" viewBox="0 0 24 24"><path fill="#000" d="M19.8 10.6h-.5v-2c0-2.2-1.8-4-4-4h-2v-.4c0-1.8-1.4-3.2-3.2-3.2S6.9 2.4 6.9 4.2v.5H5c-2.2 0-4 1.8-4 4v3c0 .6.4 1 1 1h1.5c.3 0 .6.1.9.4s.4.6.4 1c0 .6-.6 1.1-1.3 1.1H2c-.6 0-1 .4-1 1v3c0 2.2 1.8 4 4 4h3c.6 0 1-.4 1-1v-1.5c0-.3.1-.6.4-.9s.6-.4 1-.4c.6 0 1.1.6 1.1 1.3V22c0 .6.4 1 1 1h3c2.2 0 4-1.8 4-4v-2h.5c1.8 0 3.2-1.4 3.2-3.2-.2-1.7-1.6-3.2-3.4-3.2m0 4.5h-1.5c-.6 0-1 .4-1 1v3c0 1.1-.9 2-2 2h-2v-.4c0-1.8-1.3-3.2-3-3.3-.9-.1-1.9.3-2.5.9s-.9 1.4-.9 2.3v.4H5c-1.1 0-2-.9-2-2v-2h.4c1.8 0 3.2-1.3 3.3-3 .1-.9-.3-1.8-.9-2.5-.7-.5-1.5-.9-2.3-.9H3v-2c0-1.1.9-2 2-2h3c.6 0 1-.4 1-1V4.2c-.1-.7.5-1.2 1.1-1.2.7 0 1.2.5 1.2 1.2v1.5c0 .6.4 1 1 1h3c1.1 0 2 .9 2 2v3c0 .6.4 1 1 1h1.5c.7 0 1.2.5 1.2 1.2s-.5 1.2-1.2 1.2"/></svg>

<svg width="24" height="24" viewBox="0 0 24 24" fill="none" xmlns="http://www.w3.org/2000/svg">
<path d="M19.8 10.6H19.3V8.6C19.3 6.4 17.5 4.6 15.3 4.6H13.3V4.2C13.3 2.4 11.9 1 10.1 1C8.3 1 6.9 2.4 6.9 4.2V4.7H5C2.8 4.7 1 6.5 1 8.7V11.7C1 12.3 1.4 12.7 2 12.7H3.5C3.8 12.7 4.1 12.8 4.4 13.1C4.7 13.4 4.8 13.7 4.8 14.1C4.8 14.7 4.2 15.2 3.5 15.2H2C1.4 15.2 1 15.6 1 16.2V19.2C1 21.4 2.8 23.2 5 23.2H8C8.6 23.2 9 22.8 9 22.2V20.7C9 20.4 9.1 20.1 9.4 19.8C9.7 19.5 10 19.4 10.4 19.4C11 19.4 11.5 20 11.5 20.7V22C11.5 22.6 11.9 23 12.5 23H15.5C17.7 23 19.5 21.2 19.5 19V17H20C21.8 17 23.2 15.6 23.2 13.8C23 12.1 21.6 10.6 19.8 10.6ZM19.8 15.1H18.3C17.7 15.1 17.3 15.5 17.3 16.1V19.1C17.3 20.2 16.4 21.1 15.3 21.1H13.3V20.7C13.3 18.9 12 17.5 10.3 17.4C9.4 17.3 8.4 17.7 7.8 18.3C7.2 18.9 6.9 19.7 6.9 20.6V21H5C3.9 21 3 20.1 3 19V17H3.4C5.2 17 6.6 15.7 6.7 14C6.8 13.1 6.4 12.2 5.8 11.5C5.1 11 4.3 10.6 3.5 10.6H3V8.6C3 7.5 3.9 6.6 5 6.6H8C8.6 6.6 9 6.2 9 5.6V4.2C8.9 3.5 9.5 3 10.1 3C10.8 3 11.3 3.5 11.3 4.2V5.7C11.3 6.3 11.7 6.7 12.3 6.7H15.3C16.4 6.7 17.3 7.6 17.3 8.7V11.7C17.3 12.3 17.7 12.7 18.3 12.7H19.8C20.5 12.7 21 13.2 21 13.9C21 14.6 20.5 15.1 19.8 15.1Z" fill="black"/>
</svg>
